X:1
T:Title
%%score ( 1 2 3 ) { 4 | 5 }
L:1/8
Q:1/4=108
M:2/4
K:Eb
V:1 treble nm="Grand Piano, Soprano"
V:2 treble 
V:3 treble 
V:4 bass nm="Choir Pad, Dayspring (Freylinghausen)"
V:5 bass 
V:1
 [B,G]2 E2 | [EB]2 [Ec]2 | A3 G | [EG]4 | [Ge]2 [Gd]2 | [Gc]2 [Fd]2 | [Fe]2 [Fd]2 | c2- [Fc-][Ec] | %8
w: By~Johann~Anastasius~Freylinghausen,~1704 *||||||||
 [DB]4 | [B,G]2 E2 | [EB]2 [Ec]2 | A4 | [EG]4 | [Ge]2 [Gd]2 | [Gc]2 [Fd]2 | [Fe]2 [Fd]2 | %16
w: ||||||||
 c2- [Fc-][Ec] | [DB]4 | [EB]2 [_DB]2 | c2 z2 | A2 z2 | [DF]4 | [EG]4 | F4 | E4- | E4 |] %26
w: ||||||||||
V:2
 x4 | x4 | E2 D2 | x4 | x4 | x4 | x4 | G2 z2 | x4 | x4 | x4 | E2 z G | x4 | x4 | x4 | x4 | G2 z2 | %17
 x4 | x4 | CD [EB]2 | EF [EG]2 | x4 | x4 | E2 D2 | x4 | x4 |] %26
V:3
 x4 | x4 | x4 | x4 | x4 | x4 | x4 | x4 | x4 | x4 | x4 | z2 D2 | x4 | x4 | x4 | x4 | x4 | x4 | x4 | %19
 x4 | x4 | x4 | x4 | x4 | x4 | x4 |] %26
V:4
 G,2 G,2 | B,2 A,G, | F,2 B,2 | B,4 | C2 B,2 | G,=A, B,2 | =A,2 B,2 | B,2 =A,2 | F,4 | G,2 G,2 | %10
 B,2 A,G, | F,2 B,2 | B,4 | C2 B,2 | G,=A, B,2 | =A,2 B,2 | B,2 =A,2 | F,4 | G,2 E,2 | E,F, G,2 | %20
 A,F, G,A, | B,4 | B,4 | B,3 A, | G,4- | G,4 |] %26
V:5
 E,2 C,2 | G,,2 A,,2 | B,,2 B,,2 | E,4 | C,2 G,2 | E,2 D,2 | C,2 B,,2 | E,2 F,2 | B,,4 | E,2 C,2 | %10
 G,,2 A,,2 | B,,2 B,,2 | E,4 | C,2 G,2 | E,2 D,2 | C,2 B,,2 | E,2 F,2 | B,,4 | E,2 G,,2 | %19
 A,,2 G,,2 | C,D, E,2 | B,,4 | E,4 | B,,4 | [E,,E,]4- | [E,,E,]4 |] %26

